X:1
T:Southwold, CM
T:Southwold, CM
T:Henry John Gauntlett, 1852
T:Public Domain Courtesy of the Cyber Hymnal™
C:Henry John Gauntlett, 1852
Z:Public Domain
Z:Courtesy of the Cyber Hymnal™
%%score ( 1 2 ) ( 3 4 )
L:1/8
Q:1/4=112
M:4/4
K:F
V:1 treble 
V:2 treble 
V:3 bass 
V:4 bass 
V:1
 [FA]2 | [FA]2 [Gc]2 [Fc]2 [FB]2 | B3 z B [FA]2 [FA]2 | [EG]2 F2 [Fd]2 [GB]2 | [EG]6 [Ac]2 | %5
 [Ac]2 [GB]2 [GB]2 [FA]2 | [DG]2 [DF]2 [CE]2 [GB]2 | [FA]2 [Fc]2 [FG]2 [EG]2 | F6 |] %9
V:2
 x2 | x8 | F2 E2 x5 | x2 F2 x4 | x8 | x8 | x8 | x8 | F6 |] %9
V:3
 [F,C]2 | [F,C]2 [E,C]2 [D,D]2 [G,D]2 | [C,C]2 [C,C]2 [F,C]2 [F,C]2 x | %3
 [C,B,]2 [D,A,]2 [B,,B,]2 [B,,D]2 | [C,C]6 [A,E]2 | [F,D]2 [G,D]2 [E,C]2 [F,C]2 | %6
 [B,,B,]2 [B,,A,]2 [C,G,]2 [E,C]2 | [F,C]2 [A,,C]2 [C,C]2 (CB,) | [F,,A,]6 |] %9
V:4
 x2 | x8 | x9 | x8 | x8 | x8 | x8 | x6 C,2 | x6 |] %9

